!! 00053] TT[KA
!! Kassette von Frau Li Wenzhen, Peking - Zum Gesangsheft
!!!OTL: Sanyuanli kang ying
!!!ARE: Asia, China,ÿGuangdong
!! Ethnic Group: Han
!! MM, Seite 22, 1, und II, 371
!!!SCT: C1278
!!!YEM: Copyright 1995, estate of Helmut Schaffrath.
**kern
*ICvox
*Ivox
*M2/4
*k[f#]
*G:
{4b
4b
=1
4e
4f#
=2
2g}
=3
{4e
4g
=4
4f#
4d
=5
2d}
=6
{4b
4B
=7
4f#
4b
=8
2g}
=9
{4g
4b
=10
4g
4d
=11
8a
8b
4g
=12
2e}
=13
{4g
4b
=14
4B
4f#
=15
2b}
=16
{4e
4g
=17
4e
4b
=18
2B}
=19
{4b
4B
=20
4e
4f#
=21
2b}
=22
{4f#
4b
=23
4b
4e
=24
2b}
=25
{4b
4b
=26
4B
4b
=27
2g}
=28
{4e
4b
=29
2b
=30
2a}
==
!!!AGN: Xiaodiao, Erge. Chang lishi
!! Die Stuecke sind meist uebersteuert, also verzerrt.
!!    Gesungen in kantonesisch.
!!    Mehrere Verzierungen.
!!!ONB: ESAC (Essen Associative Code) Database: CHINA
!!!AMT: simple duple
!!!AIN: vox
!!!EED: Helmut Schaffrath
!!!EEV: 1.0
*-
